svg/logo/mastodon_line.svg

<?xml version="1.0" encoding="UTF-8"?>
<svg width="24px" height="24px" viewBox="0 0 24 24" version="1.1" xmlns="http://www.w3.org/2000/svg" xmlns:xlink="http://www.w3.org/1999/xlink">
    <title>mastodon_line</title>
    <g id="Icon" stroke="none" stroke-width="1" fill="none" fill-rule="evenodd">
        <g id="Logo" transform="translate(-384.000000, -192.000000)" fill-rule="nonzero">
            <g id="mastodon_line" transform="translate(384.000000, 192.000000)">
                <path d="M24,0 L24,24 L0,24 L0,0 L24,0 Z M12.5935,23.2578 L12.5819,23.2595 L12.5109,23.295 L12.4919,23.2987 L12.4767,23.295 L12.4057,23.2595 C12.3958,23.2564 12.387,23.259 12.3821,23.2649 L12.378,23.2758 L12.3609,23.7031 L12.3659,23.7235 L12.3769,23.7357 L12.4805,23.8097 L12.4953,23.8136 L12.5071,23.8097 L12.6107,23.7357 L12.6233,23.7197 L12.6267,23.7031 L12.6096,23.2758 C12.6076,23.2657 12.601,23.2593 12.5935,23.2578 Z M12.8584,23.1453 L12.8445,23.1473 L12.6598,23.2397 L12.6499,23.2499 L12.6472,23.2611 L12.6651,23.6906 L12.6699,23.7034 L12.6784,23.7105 L12.8793,23.8032 C12.8914,23.8069 12.9022,23.803 12.9078,23.7952 L12.9118,23.7812 L12.8777,23.1665 C12.8753,23.1546 12.8674,23.147 12.8584,23.1453 Z M12.143,23.1473 C12.1332,23.1424 12.1222,23.1453 12.1156,23.1526 L12.1099,23.1665 L12.0758,23.7812 C12.0751,23.7927 12.0828,23.8019 12.0926,23.8046 L12.1083,23.8032 L12.3092,23.7105 L12.3186,23.7024 L12.3225,23.6906 L12.3404,23.2611 L12.3372,23.2485 L12.3278,23.2397 L12.143,23.1473 Z" id="MingCute"></path>
                <path d="M16.4315,2.41464 C18.5681,2.78349 20.2082,4.43638 20.5953,6.55676 C21.0264,8.91801 21.1232,11.2395 20.6359,13.6646 C20.2292,15.6881 18.6286,17.1974 16.6243,17.5576 C15.0748,17.8361 13.5199,17.9817 11.9582,17.9789 C12.6802833,18.1222333 13.42945,18.1479972 14.1683157,18.1643514 L14.7997714,18.1764166 L14.7997714,18.1764166 L15.194885,18.1783276 C15.7310322,18.1848851 16.2919909,18.2255727 16.7277,18.5175 C16.9936,18.6957 17.2626,19.0284 17.2614,19.5028 C17.2602,19.932 17.03,20.2345 16.897,20.3805 C16.4286,20.8943 15.7075,21.1651 15.0649,21.3745 C14.023,21.714 12.6048,21.9751 11.0044,21.9823544 C7.57665,21.9976 4.36102,19.719 3.52734,16.2327 C2.77803,13.0993 2.78437,9.58438 3.38215,6.45068 C3.77823,4.37435 5.40456,2.79434 7.47634,2.43065 C10.4665,1.90576 13.4383,1.8979 16.4315,2.41464 Z M7.82214,4.40053 C6.5588,4.6223 5.58514,5.57562 5.34673,6.82544 C4.79535,9.71588 4.79685,12.9422 5.47249,15.7675 C6.07361,18.2813 8.42326,19.9938 10.9955,19.9824146 C11.2288,19.9812 11.4568,19.974 11.6788,19.9613 C10.3894,19.733 9.35847,19.0723 8.71996,18.4639 C8.2011,17.9694 7.60474,17.21 7.9289,16.4501 C8.12998,15.9788 8.63113,15.7285 9.1291,15.7934 C11.5123,16.1038 13.8877,16.0174 16.2706,15.5891 C17.4941,15.3692 18.4356,14.4624 18.6751,13.2706 C19.1007,11.1524 19.0255,9.09438 18.6278,6.91595 C18.3891,5.60833 17.3885,4.60944 16.0912,4.38548 C13.3266,3.90821 10.587,3.91519 7.82214,4.40053 Z M14,6 C15.6569,6 17,7.34315 17,9 L17,13 C17,13.5523 16.5523,14 16,14 C15.4477,14 15,13.5523 15,13 L15,9 C15,8.44772 14.5523,8 14,8 C13.4477,8 13,8.44772 13,9 L13,12 C13,12.5523 12.5523,13 12,13 C11.4477,13 11,12.5523 11,12 L11,9 C11,8.44772 10.5523,8 10,8 C9.44771,8 9,8.44772 9,9 L9,13 C9,13.5523 8.55228,14 8,14 C7.44771,14 7,13.5523 7,13 L7,9 C7,7.34315 8.34314,6 10,6 C10.7684,6 11.4692,6.28885 12,6.7639 C12.5308,6.28885 13.2316,6 14,6 Z" id="形状" fill="#09244B"></path>
            </g>
        </g>
    </g>
</svg>

<svg xmlns="http://www.w3.org/2000/svg" width="24" height="24"><g fill="none" fill-rule="nonzero"><path d="M24 0v24H0V0h24ZM12.594 23.258l-.012.002-.071.035-.02.004-.014-.004-.071-.036c-.01-.003-.019 0-.024.006l-.004.01-.017.428.005.02.01.013.104.074.015.004.012-.004.104-.074.012-.016.004-.017-.017-.427c-.002-.01-.009-.017-.016-.018Zm.264-.113-.014.002-.184.093-.01.01-.003.011.018.43.005.012.008.008.201.092c.012.004.023 0 .029-.008l.004-.014-.034-.614c-.003-.012-.01-.02-.02-.022Zm-.715.002a.023.023 0 0 0-.027.006l-.006.014-.034.614c0 .012.007.02.017.024l.015-.002.201-.093.01-.008.003-.011.018-.43-.003-.012-.01-.01-.184-.092Z"/><path fill="#09244B" d="M16.432 2.415a5.109 5.109 0 0 1 4.163 4.142c.431 2.361.528 4.682.04 7.108-.406 2.023-2.006 3.532-4.01 3.893-1.55.278-3.105.424-4.667.42.722.144 1.471.17 2.21.186l.632.012.395.002c.536.007 1.097.048 1.533.34.266.178.535.51.533.985 0 .429-.231.732-.364.878-.468.513-1.19.784-1.832.994-1.042.339-2.46.6-4.06.607-3.428.016-6.644-2.263-7.478-5.75-.749-3.133-.743-6.648-.145-9.781a5.03 5.03 0 0 1 4.094-4.02 25.859 25.859 0 0 1 8.956-.016ZM7.822 4.4a3.03 3.03 0 0 0-2.475 2.424c-.552 2.89-.55 6.117.125 8.942.602 2.514 2.951 4.227 5.523 4.215.234 0 .462-.008.684-.02a5.862 5.862 0 0 1-2.959-1.498c-.519-.495-1.115-1.254-.791-2.014.201-.471.702-.721 1.2-.657 2.383.31 4.759.224 7.142-.204 1.223-.22 2.165-1.127 2.404-2.318.426-2.119.35-4.177-.047-6.355a3.109 3.109 0 0 0-2.537-2.53 23.858 23.858 0 0 0-8.269.015ZM14 6a3 3 0 0 1 3 3v4a1 1 0 1 1-2 0V9a1 1 0 1 0-2 0v3a1 1 0 1 1-2 0V9a1 1 0 1 0-2 0v4a1 1 0 1 1-2 0V9a3 3 0 0 1 5-2.236A2.989 2.989 0 0 1 14 6Z"/></g></svg>
